X:2823
L:1/8
M:4/4
K:G
 z D | G2 A2 B2 z c | A2 B2 G2 z A | B2 c2 d2 z e | c2 d2 B2 z G | G2 G2 e2 e2 f2 | g2 e2 d2 Bc | 
 d2 d2 c2 AA |1 d2 c2 B3 z :|2 d2 d2 G4 |: B>B B>B B>c ^cd | e>A A>A A2 z G | F>A A>A A>B c^c | 
 d>G G>G G3/2G | B>B B>B B>c ^cd | e>A A>A A2 z d | d>^c d>e d=c BA | G2 G2 G2 z2 :|

